X: 544
T: The Magic Oak
%R: reel
B: "Twenty Four Country Dances for the Year 1805", Tho. Preston, ed. p.232 #2
F: http://folkopedia.efdss.org/images/archive/0/02/20121211105513%21Preston_24_1805.PDF
Z: 2014 John Chambers <jc:trillian.mit.edu>
M: 2/4
L: 1/8
K: Bb
|:\
BABc | Bdfd | cBcd | fedc |\
BABc | Bdfd | decd | B2B2 :|
|:\
cdcB | Acf2 | =edec | f2c2 |\
cdcB | Acf2 | {a}gfga | f2f2 :|
b2ff | f2dd | d2BB | F2F2 |\
BABd | cBcd | edcB | A2F2 |
b2ff | f2dd | d2BB | F2F2 |\
BABd | cABc | ABcA | B2B2 |]
%%begintext align
%% 1st and 2d Cu. hands across, back again, lead
%% down the middle up again hands 4 round at top
%% and swing corners.
%%endtext

%%sep 1 1 500
%%sep 1 1 500
